X:1
T:The Evergreen Shore
T:The Evergreen Shore
T:William Batchelder Bradbury, 1861
T:William Hunter (1811–1877)
T:Public Domain Courtesy of the Cyber Hymnal™
T:Public Domain Courtesy of the Cyber Hymnal™
C:William Batchelder Bradbury, 1861
Z:Public Domain
Z:Courtesy of the Cyber Hymnal™
%%score ( 1 2 ) ( 3 4 )
L:1/8
Q:1/4=97
M:6/8
K:C
V:1 treble 
V:2 treble 
V:3 bass 
V:4 bass 
V:1
 GG | [Gc][Gc][Gc] [Gc][GB][Gc] | [Bd][Bd][Bd] [Bd]3 | [Gd][Gd][Gd] [Gd][Gc][Gd] | %4
w: 1.~We are|joy- ous- ly voy- ag- ing|o- ver the main,|Bound for the ev- er- green|
w: 2.~We have|no- thing to fear from the|wind and the wave,|Un- der our Sav- ior’s com-|
w: 3.~Both the|winds and the waves our Com-|man- der con- trols;|No- thing can baf- fle His|
w: 4.~In the|thick mur- ky night, when the|stars and the moon|Send not a glim- mer- ing|
w: 5.~Let the|high heav- ing bil- low and|moun- tain- ous wave,|Fear- ful- ly o- ver- head|
w: 6.~Let the|ves- sel be wrecked on the|rock, or the shoal,|Sink to be seen ne- ver|
 [Ge]3- !fermata![Ge]2 GG | [Gc][Gc][Gc] [Gc][GB][Gc] | [Bd][Bd][Bd] [Bd]2 [Ac] | %7
w: shore, * Whose in-|hab- i- tants ne- ver of|sick- ness com- plain, And|
w: mand; * And our|hearts in the midst of the|dan- gers are brave; For|
w: skill; * And His|voice when the thun- der- ing|hurr- i- cane rolls, Can|
w: ray, * Then the|light of His coun- te- nance,|bright- er than noon, Will|
w: break; * There is|One by our side that can|com- fort and save; There’s|
w: more; * He will|bear, none the less, ev- ery|pas- sen- ger soul, Safe,|
 [GB][GB][GB] [Ac][GB][^FA] | G3- G2 ||"^Refrain" G | [FA]2 [FA] [FA][FA][FA] | [Ac]3- [Ac]2 [FA] | %12
w: ne- ver see death an- y|more. *||||
w: Je- sus will bring us to|land. *||||
w: make the loud tem- pest be|still. *|Then|let the hur- ri- cane|roar, * It|
w: drive all our ter- ror a-|way. *||||
w: One who will ne- ver for-|sake. *||||
w: safe to the ev- er- green|shore. *||||
 [EG]2 [EG] [Gc][Gd][Ge] | !fermata![Gd]4 |: [Gd][Gd] | [Ge][Ge][Ge] [Fd][Fd][Fd] | %16
w: ||||
w: ||||
w: will the soon- er be|o’er;|We will|wea- ther the blast, And will|
w: ||||
w: ||||
w: ||||
 [Ec]2 [Ec] !fermata![FA]2 [FA] | [EG]2 [Ec] [DB][CA][DB] | [Ec]4 :| %19
w: |||
w: |||
w: land at last, Safe|on the ev- er- green|shore.|
w: |||
w: |||
w: |||
V:2
 GG | x6 | x6 | x6 | x5 GG | x6 | x6 | x6 | G3- G2 || G | x6 | x6 | x6 | x4 |: x2 | x6 | x6 | x6 | %18
 x4 :| %19
V:3
 G,G, | [C,E][C,E][C,E] [E,C][D,D][C,E] | [G,D][G,D][G,D] [G,D]3 | %3
 [G,B,][G,B,][G,B,] [G,B,][E,C][G,B,] | C3- !fermata!C2 G,G, | [C,E][C,E][C,E] [E,C][D,D][C,E] | %6
 [G,D][G,D][G,D] [G,D]2 [C,E] | [D,D][D,D][D,D] [D,D][D,D][D,C] | [G,B,]3- [G,B,]2 || [E,C] | %10
 [F,C]2 [F,C] [F,C][F,C][F,C] | [F,C]3- [F,C]2 F, | C3 [E,C][D,B,][C,C] | !fermata![G,B,]4 |: %14
 [G,B,][G,B,] | CCC [G,B,][G,B,][G,B,] | [A,C]2 [A,C] !fermata![F,C]2 [F,C] | [G,C]2 [G,C] G,G,G, | %18
 [C,G,]4 :| %19
V:4
 G,G, | x6 | x6 | x6 | C3- C2 G,G, | x6 | x6 | x6 | x5 || x | x6 | x6 | C,2 C, x3 | x4 |: x2 | %15
 CCC x3 | x6 | x3 G,G,G, | x4 :| %19

